X:1
T:[ID 7-7 (Variante mit 10 Taktigem B-Teil)]
T:[ID 7-7 (Variante mit 10 Taktigem B-Teil)]
T:Bezeichnung standardisiert: Menuett Menuet 9. \"Ahnlich in dieser Quelle: ID 2-59 (Anm. S. Wascher);
T:Urheber unbekannt Erstbeleg: 1776-1791 (Datum in der schriftlichen Quelle) Datum in der hier transkribierten schriftlichen Quelle: 1792
C:Urheber unbekannt
C:Erstbeleg: 1776-1791 (Datum in der schriftlichen Quelle)
C:Datum in der hier transkribierten schriftlichen Quelle: 1792
L:1/8
M:3/4
K:D
V:1 treble 
V:1
 g4 (3gab | d2 c2 B2 | A4 (3cde | d2 F2 G2 | GBdgbg | a2 ^c2 d2 | egfed^c | d6 :: d4 (3de_f | %9
 edcB A2 | c4 (3cde | dcBA G2 |"^O)" c2 B2 A2 | G2 F2 G2 |"^O)" c2 B2 A2 | G2 F2 G2 | AcBAGF | %17
 G6 :| %18

